X: 084
T: Bonny Annie
R: strathspey
M: C|
L: 1/16
Z: 2010 John Chambers <jc:trillian.mit.edu>
B: Abraham Mackintosh "A Collection of Strathspeys, Reels, Jigs &c.", Newcastle, after 1797, p.8-9
F: http://imslp.info/files/imglnks/usimg/a/a8/IMSLP80796-PMLP164326-Abraham_Mackintosh_coll.pdf
K: Am
V: 1
c2 | AAA2 A2G2 EG3G3c | AAA2 A3B c3d e2c2 | (dcBA) c3G EG3G3c | AAA2 A3^g a2A2A2 :|
g2 | efge cg3 e3cg3c | B3Gd3G B3cd3f | e3cg3c eg3c3a | ge3de3 c2A2-A2 ||
g2 | a3gea3 gc3ed3 | c3AGc3 | Ec3Gc3 | ABcA G3A c3de3a | {b}g2fe {g}f2ed c2A2A2 |]
V: 2 clef=bass middle=d
z2 | A6B2 c4e4 | a4 a2g2 e2d2c4 | f4e4 c4c4 | a6e2 c4A2 :|
z2 | c4c4 c4c4 | g4g4 g4g4 | c4c4 c4f4 | e4g2e2 a4A4 ||
     e4c4 e4g4 | c4c4 c4e4 | f4e4 c4c4 | e2c2 d2B2 A6 |]

%%sep 2 1 500

